X: 42463
T: Wet Bed, The
R: reel
M: 4/4
K: Gmajor
g2B2 cBAG|ABcA B2AG|FGAB cBAc|BcdB cdef|
g2B2 cBAG|ABcA B2AG|FGAB cBAc|BGGF G2Bd:|
e2B2 efge|fgaf gfeg|f2B2 fgaf|gfed BABd|
e2B2 efge|fgaf gfeg|fgaf gfef|gdBd cdef:|

